src/icons/outline/symbols/time-reverse.svg

<svg width="24" height="24" viewBox="0 0 24 24" fill="none" xmlns="http://www.w3.org/2000/svg">
<g clip-path="url(#clip0_4594_411)">
<path d="M13.8743 1.10156C14.2011 0.902195 14.6278 1.00537 14.8275 1.33203C15.0271 1.65882 14.9238 2.08545 14.597 2.28515L12.6683 3.46289C13.5361 3.54212 14.3938 3.737 15.2171 4.04589C16.8793 4.66955 18.3407 5.73368 19.4447 7.12402C20.5486 8.51437 21.253 10.1792 21.4837 11.9394C21.7143 13.6999 21.4619 15.4902 20.7533 17.1182C20.0446 18.746 18.9068 20.1509 17.4613 21.1816C16.0157 22.2123 14.3171 22.8303 12.5472 22.9697C10.7773 23.1092 9.00255 22.7652 7.41341 21.9736C5.82424 21.182 4.48054 19.9724 3.52571 18.4756C3.31975 18.1527 3.41474 17.7245 3.73763 17.5186C4.06041 17.3127 4.48865 17.4069 4.69466 17.7295C5.51413 19.0141 6.6677 20.0519 8.03157 20.7314C9.39549 21.4109 10.9187 21.7065 12.4378 21.5869C13.957 21.4672 15.4158 20.9365 16.6566 20.0518C17.8971 19.167 18.8736 17.9616 19.4818 16.5644C20.0899 15.1672 20.3066 13.631 20.1087 12.1201C19.9108 10.6091 19.3063 9.17978 18.3587 7.98632C17.4112 6.79297 16.1565 5.88002 14.7298 5.34472C13.815 5.00149 12.851 4.82253 11.8822 4.81054L14.2103 6.70312C14.5075 6.9446 14.5533 7.38147 14.3118 7.67871C14.0703 7.97593 13.6335 8.02076 13.3363 7.77929L9.63802 4.77441C9.4634 4.63253 9.36824 4.4149 9.38314 4.19043C9.39818 3.9658 9.52111 3.76192 9.71321 3.64453L13.8743 1.10156Z" fill="#3C3B44"/>
<path d="M11.929 9.09082C12.312 9.09096 12.6225 9.40123 12.6224 9.78417L12.6214 14.4072C12.6213 14.591 12.5482 14.7675 12.4183 14.8975L9.64583 17.6709C9.37506 17.9418 8.93524 17.9417 8.66439 17.6709C8.39383 17.4001 8.39374 16.9612 8.66439 16.6904L11.2347 14.1201L11.2357 9.78417C11.2358 9.40119 11.546 9.09074 11.929 9.09082Z" fill="#3C3B44"/>
<path d="M2.1595 11.415C2.22731 11.0382 2.58826 10.7877 2.96517 10.8555C3.34194 10.9232 3.59224 11.2834 3.52474 11.6602C3.30875 12.8618 3.34665 14.0961 3.63607 15.2822C3.72665 15.6541 3.49913 16.0293 3.12728 16.1201C2.75521 16.2109 2.38018 15.9824 2.28939 15.6103C1.95412 14.2363 1.90928 12.8071 2.1595 11.415Z" fill="#3C3B44"/>
<path d="M6.65364 4.87988C6.97934 4.67875 7.40639 4.77985 7.60775 5.10546C7.80892 5.43116 7.70779 5.8582 7.38216 6.05957C6.34547 6.70069 5.45836 7.55719 4.7806 8.57031C4.56758 8.88843 4.13692 8.97364 3.81868 8.76074C3.50042 8.54777 3.41531 8.11712 3.62825 7.79882C4.41636 6.62082 5.44818 5.62531 6.65364 4.87988Z" fill="#3C3B44"/>
</g>
<defs>
<clipPath id="clip0_4594_411">
<rect width="24" height="24" fill="white"/>
</clipPath>
</defs>
</svg>

<svg xmlns="http://www.w3.org/2000/svg" width="24" height="24" fill="none" viewBox="0 0 24 24"><g fill="currentColor" clip-path="url(#a)"><path d="M13.874 1.102a.694.694 0 0 1 .723 1.183l-1.929 1.178a9.8 9.8 0 0 1 6.777 3.661 9.79 9.79 0 1 1-15.92 11.352.693.693 0 0 1 1.17-.746A8.403 8.403 0 1 0 14.73 5.345a8.4 8.4 0 0 0-2.848-.534l2.328 1.892a.694.694 0 1 1-.874 1.076L9.638 4.774a.693.693 0 0 1 .075-1.13z"/><path d="M11.929 9.09a.694.694 0 0 1 .693.694v4.623c0 .184-.074.36-.204.49l-2.772 2.774a.694.694 0 0 1-.982-.98l2.57-2.57.002-4.337c0-.383.31-.693.693-.693M2.16 11.415a.694.694 0 0 1 1.365.245 8.75 8.75 0 0 0 .111 3.622.693.693 0 1 1-1.347.328 10.1 10.1 0 0 1-.13-4.195M6.654 4.88a.693.693 0 0 1 .728 1.18 8.5 8.5 0 0 0-2.601 2.51.694.694 0 0 1-1.153-.771 9.9 9.9 0 0 1 3.026-2.92"/></g><defs><clipPath id="a"><path fill="currentColor" d="M0 0h24v24H0z"/></clipPath></defs></svg>
